X:115
T:Paddy's Resource
R:jig
Z:Transcribed by Dave Marshall
M:6/8
K:G
|: ~G3 EGD | GBd e2d | gBB BAB | cBc AGE |
~G3 EGD | GBd e2d | gBB BAB | cAF G3 :|
|: GBd GBd | GBd cBA | GBd eag | fdd def |
~g3 ~f3 | ege dcB | ~c3 ABc | BGF G3 :|
